client/src/assets/alert/success.svg

<svg xmlns="http://www.w3.org/2000/svg" aria-hidden="true" fill="#5CB660" viewBox="0 0 24 24"><defs/><path d="M20 12a8 8 0 01-8 8 8 8 0 01-8-8 8 8 0 018-8c.76 0 1.5.11 2.2.31l1.57-1.57A9.822 9.822 0 0012 2 10 10 0 002 12a10 10 0 0010 10 10 10 0 0010-10M7.91 10.08L6.5 11.5 11 16 21 6l-1.41-1.42L11 13.17l-3.09-3.09z"/></svg>

<svg xmlns="http://www.w3.org/2000/svg" viewBox="0 0 24 24" fill="#4BAA4E" aria-hidden="true"><path d="M20,12A8,8 0 0,1 12,20A8,8 0 0,1 4,12A8,8 0 0,1 12,4C12.76,4 13.5,4.11 14.2, 4.31L15.77,2.74C14.61,2.26 13.34,2 12,2A10,10 0 0,0 2,12A10,10 0 0,0 12,22A10,10 0 0, 0 22,12M7.91,10.08L6.5,11.5L11,16L21,6L19.59,4.58L11,13.17L7.91,10.08Z"></path></svg>
